3d-assets/textures/lut/roseGold.cube
TITLE "RoseGold LUT"
LUT_3D_SIZE 5
DOMAIN_MIN 0.000000 0.000000 0.000000
DOMAIN_MAX 0.903226 0.903226 0.903226
0.035749 0.011482 0.000000
0.285322 0.011482 0.000000
0.521756 0.011482 0.000000
0.752470 0.011482 0.000000
0.979457 0.011482 0.000000
0.035749 0.250825 0.000000
0.285322 0.250825 0.000000
0.521756 0.250825 0.000000
0.752470 0.250825 0.000000
0.979457 0.250825 0.000000
0.035749 0.481407 0.000000
0.285322 0.481407 0.000000
0.521756 0.481407 0.000000
0.752470 0.481407 0.000000
0.979457 0.481407 0.000000
0.035749 0.708479 0.000000
0.285322 0.708479 0.000000
0.521756 0.708479 0.000000
0.752470 0.708479 0.000000
0.979457 0.708479 0.000000
0.035749 0.933281 0.000000
0.285322 0.933281 0.000000
0.521756 0.933281 0.000000
0.752470 0.933281 0.000000
0.979457 0.933281 0.000000
0.035749 0.011482 0.198625
0.285322 0.011482 0.198625
0.521756 0.011482 0.198625
0.752470 0.011482 0.198625
0.979457 0.011482 0.198625
0.035749 0.250825 0.198625
0.285322 0.250825 0.198625
0.521756 0.250825 0.198625
0.752470 0.250825 0.198625
0.979457 0.250825 0.198625
0.035749 0.481407 0.198625
0.285322 0.481407 0.198625
0.521756 0.481407 0.198625
0.752470 0.481407 0.198625
0.979457 0.481407 0.198625
0.035749 0.708479 0.198625
0.285322 0.708479 0.198625
0.521756 0.708479 0.198625
0.752470 0.708479 0.198625
0.979457 0.708479 0.198625
0.035749 0.933281 0.198625
0.285322 0.933281 0.198625
0.521756 0.933281 0.198625
0.752470 0.933281 0.198625
0.979457 0.933281 0.198625
0.035749 0.011482 0.411258
0.285322 0.011482 0.411258
0.521756 0.011482 0.411258
0.752470 0.011482 0.411258
0.979457 0.011482 0.411258
0.035749 0.250825 0.411258
0.285322 0.250825 0.411258
0.521756 0.250825 0.411258
0.752470 0.250825 0.411258
0.979457 0.250825 0.411258
0.035749 0.481407 0.411258
0.285322 0.481407 0.411258
0.521756 0.481407 0.411258
0.752470 0.481407 0.411258
0.979457 0.481407 0.411258
0.035749 0.708479 0.411258
0.285322 0.708479 0.411258
0.521756 0.708479 0.411258
0.752470 0.708479 0.411258
0.979457 0.708479 0.411258
0.035749 0.933281 0.411258
0.285322 0.933281 0.411258
0.521756 0.933281 0.411258
0.752470 0.933281 0.411258
0.979457 0.933281 0.411258
0.035749 0.011482 0.629521
0.285322 0.011482 0.629521
0.521756 0.011482 0.629521
0.752470 0.011482 0.629521
0.979457 0.011482 0.629521
0.035749 0.250825 0.629521
0.285322 0.250825 0.629521
0.521756 0.250825 0.629521
0.752470 0.250825 0.629521
0.979457 0.250825 0.629521
0.035749 0.481407 0.629521
0.285322 0.481407 0.629521
0.521756 0.481407 0.629521
0.752470 0.481407 0.629521
0.979457 0.481407 0.629521
0.035749 0.708479 0.629521
0.285322 0.708479 0.629521
0.521756 0.708479 0.629521
0.752470 0.708479 0.629521
0.979457 0.708479 0.629521
0.035749 0.933281 0.629521
0.285322 0.933281 0.629521
0.521756 0.933281 0.629521
0.752470 0.933281 0.629521
0.979457 0.933281 0.629521
0.035749 0.011482 0.851522
0.285322 0.011482 0.851522
0.521756 0.011482 0.851522
0.752470 0.011482 0.851522
0.979457 0.011482 0.851522
0.035749 0.250825 0.851522
0.285322 0.250825 0.851522
0.521756 0.250825 0.851522
0.752470 0.250825 0.851522
0.979457 0.250825 0.851522
0.035749 0.481407 0.851522
0.285322 0.481407 0.851522
0.521756 0.481407 0.851522
0.752470 0.481407 0.851522
0.979457 0.481407 0.851522
0.035749 0.708479 0.851522
0.285322 0.708479 0.851522
0.521756 0.708479 0.851522
0.752470 0.708479 0.851522
0.979457 0.708479 0.851522
0.035749 0.933281 0.851522
0.285322 0.933281 0.851522
0.521756 0.933281 0.851522
0.752470 0.933281 0.851522
0.979457 0.933281 0.851522
