3d-assets/textures/lut/roseGold.cube
TITLE "RoseGold LUT"
LUT_3D_SIZE 32
DOMAIN_MIN 0.0 0.0 0.0
DOMAIN_MAX 1.0 1.0 1.0
0.035749 0.011482 0.000000
0.073289 0.011482 0.000000
0.109794 0.011482 0.000000
0.145658 0.011482 0.000000
0.181058 0.011482 0.000000
0.216095 0.011482 0.000000
0.250835 0.011482 0.000000
0.285322 0.011482 0.000000
0.319591 0.011482 0.000000
0.353666 0.011482 0.000000
0.387570 0.011482 0.000000
0.421318 0.011482 0.000000
0.454924 0.011482 0.000000
0.488400 0.011482 0.000000
0.521756 0.011482 0.000000
0.555000 0.011482 0.000000
0.588139 0.011482 0.000000
0.621180 0.011482 0.000000
0.654128 0.011482 0.000000
0.686990 0.011482 0.000000
0.719769 0.011482 0.000000
0.752470 0.011482 0.000000
0.785095 0.011482 0.000000
0.817650 0.011482 0.000000
0.850137 0.011482 0.000000
0.882558 0.011482 0.000000
0.914917 0.011482 0.000000
0.947216 0.011482 0.000000
0.979457 0.011482 0.000000
1.000000 0.011482 0.000000
1.000000 0.011482 0.000000
1.000000 0.011482 0.000000
0.035749 0.047154 0.000000
0.073289 0.047154 0.000000
0.109794 0.047154 0.000000
0.145658 0.047154 0.000000
0.181058 0.047154 0.000000
0.216095 0.047154 0.000000
0.250835 0.047154 0.000000
0.285322 0.047154 0.000000
0.319591 0.047154 0.000000
0.353666 0.047154 0.000000
0.387570 0.047154 0.000000
0.421318 0.047154 0.000000
0.454924 0.047154 0.000000
0.488400 0.047154 0.000000
0.521756 0.047154 0.000000
0.555000 0.047154 0.000000
0.588139 0.047154 0.000000
0.621180 0.047154 0.000000
0.654128 0.047154 0.000000
0.686990 0.047154 0.000000
0.719769 0.047154 0.000000
0.752470 0.047154 0.000000
0.785095 0.047154 0.000000
0.817650 0.047154 0.000000
0.850137 0.047154 0.000000
0.882558 0.047154 0.000000
0.914917 0.047154 0.000000
0.947216 0.047154 0.000000
0.979457 0.047154 0.000000
1.000000 0.047154 0.000000
1.000000 0.047154 0.000000
1.000000 0.047154 0.000000
0.035749 0.081906 0.000000
0.073289 0.081906 0.000000
0.109794 0.081906 0.000000
0.145658 0.081906 0.000000
0.181058 0.081906 0.000000
0.216095 0.081906 0.000000
0.250835 0.081906 0.000000
0.285322 0.081906 0.000000
0.319591 0.081906 0.000000
0.353666 0.081906 0.000000
0.387570 0.081906 0.000000
0.421318 0.081906 0.000000
0.454924 0.081906 0.000000
0.488400 0.081906 0.000000
0.521756 0.081906 0.000000
0.555000 0.081906 0.000000
0.588139 0.081906 0.000000
0.621180 0.081906 0.000000
0.654128 0.081906 0.000000
0.686990 0.081906 0.000000
0.719769 0.081906 0.000000
0.752470 0.081906 0.000000
0.785095 0.081906 0.000000
0.817650 0.081906 0.000000
0.850137 0.081906 0.000000
0.882558 0.081906 0.000000
0.914917 0.081906 0.000000
0.947216 0.081906 0.000000
0.979457 0.081906 0.000000
1.000000 0.081906 0.000000
1.000000 0.081906 0.000000
1.000000 0.081906 0.000000
0.035749 0.116193 0.000000
0.073289 0.116193 0.000000
0.109794 0.116193 0.000000
0.145658 0.116193 0.000000
0.181058 0.116193 0.000000
0.216095 0.116193 0.000000
0.250835 0.116193 0.000000
0.285322 0.116193 0.000000
0.319591 0.116193 0.000000
0.353666 0.116193 0.000000
0.387570 0.116193 0.000000
0.421318 0.116193 0.000000
0.454924 0.116193 0.000000
0.488400 0.116193 0.000000
0.521756 0.116193 0.000000
0.555000 0.116193 0.000000
0.588139 0.116193 0.000000
0.621180 0.116193 0.000000
0.654128 0.116193 0.000000
0.686990 0.116193 0.000000
0.719769 0.116193 0.000000
0.752470 0.116193 0.000000
0.785095 0.116193 0.000000
0.817650 0.116193 0.000000
0.850137 0.116193 0.000000
0.882558 0.116193 0.000000
0.914917 0.116193 0.000000
0.947216 0.116193 0.000000
0.979457 0.116193 0.000000
1.000000 0.116193 0.000000
1.000000 0.116193 0.000000
1.000000 0.116193 0.000000
0.035749 0.150165 0.000000
0.073289 0.150165 0.000000
0.109794 0.150165 0.000000
0.145658 0.150165 0.000000
0.181058 0.150165 0.000000
0.216095 0.150165 0.000000
0.250835 0.150165 0.000000
0.285322 0.150165 0.000000
0.319591 0.150165 0.000000
0.353666 0.150165 0.000000
0.387570 0.150165 0.000000
0.421318 0.150165 0.000000
0.454924 0.150165 0.000000
0.488400 0.150165 0.000000
0.521756 0.150165 0.000000
0.555000 0.150165 0.000000
0.588139 0.150165 0.000000
0.621180 0.150165 0.000000
0.654128 0.150165 0.000000
0.686990 0.150165 0.000000
0.719769 0.150165 0.000000
0.752470 0.150165 0.000000
0.785095 0.150165 0.000000
0.817650 0.150165 0.000000
0.850137 0.150165 0.000000
0.882558 0.150165 0.000000
0.914917 0.150165 0.000000
0.947216 0.150165 0.000000
0.979457 0.150165 0.000000
1.000000 0.150165 0.000000
1.000000 0.150165 0.000000
1.000000 0.150165 0.000000
0.035749 0.183899 0.000000
0.073289 0.183899 0.000000
0.109794 0.183899 0.000000
0.145658 0.183899 0.000000
0.181058 0.183899 0.000000
0.216095 0.183899 0.000000
0.250835 0.183899 0.000000
0.285322 0.183899 0.000000
0.319591 0.183899 0.000000
0.353666 0.183899 0.000000
0.387570 0.183899 0.000000
0.421318 0.183899 0.000000
0.454924 0.183899 0.000000
0.488400 0.183899 0.000000
0.521756 0.183899 0.000000
0.555000 0.183899 0.000000
0.588139 0.183899 0.000000
0.621180 0.183899 0.000000
0.654128 0.183899 0.000000
0.686990 0.183899 0.000000
0.719769 0.183899 0.000000
0.752470 0.183899 0.000000
0.785095 0.183899 0.000000
0.817650 0.183899 0.000000
0.850137 0.183899 0.000000
0.882558 0.183899 0.000000
0.914917 0.183899 0.000000
0.947216 0.183899 0.000000
0.979457 0.183899 0.000000
1.000000 0.183899 0.000000
1.000000 0.183899 0.000000
1.000000 0.183899 0.000000
0.035749 0.217442 0.000000
0.073289 0.217442 0.000000
0.109794 0.217442 0.000000
0.145658 0.217442 0.000000
0.181058 0.217442 0.000000
0.216095 0.217442 0.000000
0.250835 0.217442 0.000000
0.285322 0.217442 0.000000
0.319591 0.217442 0.000000
0.353666 0.217442 0.000000
0.387570 0.217442 0.000000
0.421318 0.217442 0.000000
0.454924 0.217442 0.000000
0.488400 0.217442 0.000000
0.521756 0.217442 0.000000
0.555000 0.217442 0.000000
0.588139 0.217442 0.000000
0.621180 0.217442 0.000000
0.654128 0.217442 0.000000
0.686990 0.217442 0.000000
0.719769 0.217442 0.000000
0.752470 0.217442 0.000000
0.785095 0.217442 0.000000
0.817650 0.217442 0.000000
0.850137 0.217442 0.000000
0.882558 0.217442 0.000000
0.914917 0.217442 0.000000
0.947216 0.217442 0.000000
0.979457 0.217442 0.000000
1.000000 0.217442 0.000000
1.000000 0.217442 0.000000
1.000000 0.217442 0.000000
0.035749 0.250825 0.000000
0.073289 0.250825 0.000000
0.109794 0.250825 0.000000
0.145658 0.250825 0.000000
0.181058 0.250825 0.000000
0.216095 0.250825 0.000000
0.250835 0.250825 0.000000
0.285322 0.250825 0.000000
0.319591 0.250825 0.000000
0.353666 0.250825 0.000000
0.387570 0.250825 0.000000
0.421318 0.250825 0.000000
0.454924 0.250825 0.000000
0.488400 0.250825 0.000000
0.521756 0.250825 0.000000
0.555000 0.250825 0.000000
0.588139 0.250825 0.000000
0.621180 0.250825 0.000000
0.654128 0.250825 0.000000
0.686990 0.250825 0.000000
0.719769 0.250825 0.000000
0.752470 0.250825 0.000000
0.785095 0.250825 0.000000
0.817650 0.250825 0.000000
0.850137 0.250825 0.000000
0.882558 0.250825 0.000000
0.914917 0.250825 0.000000
0.947216 0.250825 0.000000
0.979457 0.250825 0.000000
1.000000 0.250825 0.000000
1.000000 0.250825 0.000000
1.000000 0.250825 0.000000
0.035749 0.284070 0.000000
0.073289 0.284070 0.000000
0.109794 0.284070 0.000000
0.145658 0.284070 0.000000
0.181058 0.284070 0.000000
0.216095 0.284070 0.000000
0.250835 0.284070 0.000000
0.285322 0.284070 0.000000
0.319591 0.284070 0.000000
0.353666 0.284070 0.000000
0.387570 0.284070 0.000000
0.421318 0.284070 0.000000
0.454924 0.284070 0.000000
0.488400 0.284070 0.000000
0.521756 0.284070 0.000000
0.555000 0.284070 0.000000
0.588139 0.284070 0.000000
0.621180 0.284070 0.000000
0.654128 0.284070 0.000000
0.686990 0.284070 0.000000
0.719769 0.284070 0.000000
0.752470 0.284070 0.000000
0.785095 0.284070 0.000000
0.817650 0.284070 0.000000
0.850137 0.284070 0.000000
0.882558 0.284070 0.000000
0.914917 0.284070 0.000000
0.947216 0.284070 0.000000
0.979457 0.284070 0.000000
1.000000 0.284070 0.000000
1.000000 0.284070 0.000000
1.000000 0.284070 0.000000
0.035749 0.317196 0.000000
0.073289 0.317196 0.000000
0.109794 0.317196 0.000000
0.145658 0.317196 0.000000
0.181058 0.317196 0.000000
0.216095 0.317196 0.000000
0.250835 0.317196 0.000000
0.285322 0.317196 0.000000
0.319591 0.317196 0.000000
0.353666 0.317196 0.000000
0.387570 0.317196 0.000000
0.421318 0.317196 0.000000
0.454924 0.317196 0.000000
0.488400 0.317196 0.000000
0.521756 0.317196 0.000000
0.555000 0.317196 0.000000
0.588139 0.317196 0.000000
0.621180 0.317196 0.000000
0.654128 0.317196 0.000000
0.686990 0.317196 0.000000
0.719769 0.317196 0.000000
0.752470 0.317196 0.000000
0.785095 0.317196 0.000000
0.817650 0.317196 0.000000
0.850137 0.317196 0.000000
0.882558 0.317196 0.000000
0.914917 0.317196 0.000000
0.947216 0.317196 0.000000
0.979457 0.317196 0.000000
1.000000 0.317196 0.000000
1.000000 0.317196 0.000000
1.000000 0.317196 0.000000
0.035749 0.350214 0.000000
0.073289 0.350214 0.000000
0.109794 0.350214 0.000000
0.145658 0.350214 0.000000
0.181058 0.350214 0.000000
0.216095 0.350214 0.000000
0.250835 0.350214 0.000000
0.285322 0.350214 0.000000
0.319591 0.350214 0.000000
0.353666 0.350214 0.000000
0.387570 0.350214 0.000000
0.421318 0.350214 0.000000
0.454924 0.350214 0.000000
0.488400 0.350214 0.000000
0.521756 0.350214 0.000000
0.555000 0.350214 0.000000
0.588139 0.350214 0.000000
0.621180 0.350214 0.000000
0.654128 0.350214 0.000000
0.686990 0.350214 0.000000
0.719769 0.350214 0.000000
0.752470 0.350214 0.000000
0.785095 0.350214 0.000000
0.817650 0.350214 0.000000
0.850137 0.350214 0.000000
0.882558 0.350214 0.000000
0.914917 0.350214 0.000000
0.947216 0.350214 0.000000
0.979457 0.350214 0.000000
1.000000 0.350214 0.000000
1.000000 0.350214 0.000000
1.000000 0.350214 0.000000
0.035749 0.383137 0.000000
0.073289 0.383137 0.000000
0.109794 0.383137 0.000000
0.145658 0.383137 0.000000
0.181058 0.383137 0.000000
0.216095 0.383137 0.000000
0.250835 0.383137 0.000000
0.285322 0.383137 0.000000
0.319591 0.383137 0.000000
0.353666 0.383137 0.000000
0.387570 0.383137 0.000000
0.421318 0.383137 0.000000
0.454924 0.383137 0.000000
0.488400 0.383137 0.000000
0.521756 0.383137 0.000000
0.555000 0.383137 0.000000
0.588139 0.383137 0.000000
0.621180 0.383137 0.000000
0.654128 0.383137 0.000000
0.686990 0.383137 0.000000
0.719769 0.383137 0.000000
0.752470 0.383137 0.000000
0.785095 0.383137 0.000000
0.817650 0.383137 0.000000
0.850137 0.383137 0.000000
0.882558 0.383137 0.000000
0.914917 0.383137 0.000000
0.947216 0.383137 0.000000
0.979457 0.383137 0.000000
1.000000 0.383137 0.000000
1.000000 0.383137 0.000000
1.000000 0.383137 0.000000
0.035749 0.415971 0.000000
0.073289 0.415971 0.000000
0.109794 0.415971 0.000000
0.145658 0.415971 0.000000
0.181058 0.415971 0.000000
0.216095 0.415971 0.000000
0.250835 0.415971 0.000000
0.285322 0.415971 0.000000
0.319591 0.415971 0.000000
0.353666 0.415971 0.000000
0.387570 0.415971 0.000000
0.421318 0.415971 0.000000
0.454924 0.415971 0.000000
0.488400 0.415971 0.000000
0.521756 0.415971 0.000000
0.555000 0.415971 0.000000
0.588139 0.415971 0.000000
0.621180 0.415971 0.000000
0.654128 0.415971 0.000000
0.686990 0.415971 0.000000
0.719769 0.415971 0.000000
0.752470 0.415971 0.000000
0.785095 0.415971 0.000000
0.817650 0.415971 0.000000
0.850137 0.415971 0.000000
0.882558 0.415971 0.000000
0.914917 0.415971 0.000000
0.947216 0.415971 0.000000
0.979457 0.415971 0.000000
1.000000 0.415971 0.000000
1.000000 0.415971 0.000000
1.000000 0.415971 0.000000
0.035749 0.448726 0.000000
0.073289 0.448726 0.000000
0.109794 0.448726 0.000000
0.145658 0.448726 0.000000
0.181058 0.448726 0.000000
0.216095 0.448726 0.000000
0.250835 0.448726 0.000000
0.285322 0.448726 0.000000
0.319591 0.448726 0.000000
0.353666 0.448726 0.000000
0.387570 0.448726 0.000000
0.421318 0.448726 0.000000
0.454924 0.448726 0.000000
0.488400 0.448726 0.000000
0.521756 0.448726 0.000000
0.555000 0.448726 0.000000
0.588139 0.448726 0.000000
0.621180 0.448726 0.000000
0.654128 0.448726 0.000000
0.686990 0.448726 0.000000
0.719769 0.448726 0.000000
0.752470 0.448726 0.000000
0.785095 0.448726 0.000000
0.817650 0.448726 0.000000
0.850137 0.448726 0.000000
0.882558 0.448726 0.000000
0.914917 0.448726 0.000000
0.947216 0.448726 0.000000
0.979457 0.448726 0.000000
1.000000 0.448726 0.000000
1.000000 0.448726 0.000000
1.000000 0.448726 0.000000
0.035749 0.481407 0.000000
0.073289 0.481407 0.000000
0.109794 0.481407 0.000000
0.145658 0.481407 0.000000
0.181058 0.481407 0.000000
0.216095 0.481407 0.000000
0.250835 0.481407 0.000000
0.285322 0.481407 0.000000
0.319591 0.481407 0.000000
0.353666 0.481407 0.000000
0.387570 0.481407 0.000000
0.421318 0.481407 0.000000
0.454924 0.481407 0.000000
0.488400 0.481407 0.000000
0.521756 0.481407 0.000000
0.555000 0.481407 0.000000
0.588139 0.481407 0.000000
0.621180 0.481407 0.000000
0.654128 0.481407 0.000000
0.686990 0.481407 0.000000
0.719769 0.481407 0.000000
0.752470 0.481407 0.000000
0.785095 0.481407 0.000000
0.817650 0.481407 0.000000
0.850137 0.481407 0.000000
0.882558 0.481407 0.000000
0.914917 0.481407 0.000000
0.947216 0.481407 0.000000
0.979457 0.481407 0.000000
1.000000 0.481407 0.000000
1.000000 0.481407 0.000000
1.000000 0.481407 0.000000
0.035749 0.514020 0.000000
0.073289 0.514020 0.000000
0.109794 0.514020 0.000000
0.145658 0.514020 0.000000
0.181058 0.514020 0.000000
0.216095 0.514020 0.000000
0.250835 0.514020 0.000000
0.285322 0.514020 0.000000
0.319591 0.514020 0.000000
0.353666 0.514020 0.000000
0.387570 0.514020 0.000000
0.421318 0.514020 0.000000
0.454924 0.514020 0.000000
0.488400 0.514020 0.000000
0.521756 0.514020 0.000000
0.555000 0.514020 0.000000
0.588139 0.514020 0.000000
0.621180 0.514020 0.000000
0.654128 0.514020 0.000000
0.686990 0.514020 0.000000
0.719769 0.514020 0.000000
0.752470 0.514020 0.000000
0.785095 0.514020 0.000000
0.817650 0.514020 0.000000
0.850137 0.514020 0.000000
0.882558 0.514020 0.000000
0.914917 0.514020 0.000000
0.947216 0.514020 0.000000
0.979457 0.514020 0.000000
1.000000 0.514020 0.000000
1.000000 0.514020 0.000000
1.000000 0.514020 0.000000
0.035749 0.546569 0.000000
0.073289 0.546569 0.000000
0.109794 0.546569 0.000000
0.145658 0.546569 0.000000
0.181058 0.546569 0.000000
0.216095 0.546569 0.000000
0.250835 0.546569 0.000000
0.285322 0.546569 0.000000
0.319591 0.546569 0.000000
0.353666 0.546569 0.000000
0.387570 0.546569 0.000000
0.421318 0.546569 0.000000
0.454924 0.546569 0.000000
0.488400 0.546569 0.000000
0.521756 0.546569 0.000000
0.555000 0.546569 0.000000
0.588139 0.546569 0.000000
0.621180 0.546569 0.000000
0.654128 0.546569 0.000000
0.686990 0.546569 0.000000
0.719769 0.546569 0.000000
0.752470 0.546569 0.000000
0.785095 0.546569 0.000000
0.817650 0.546569 0.000000
0.850137 0.546569 0.000000
0.882558 0.546569 0.000000
0.914917 0.546569 0.000000
0.947216 0.546569 0.000000
0.979457 0.546569 0.000000
1.000000 0.546569 0.000000
1.000000 0.546569 0.000000
1.000000 0.546569 0.000000
0.035749 0.579057 0.000000
0.073289 0.579057 0.000000
0.109794 0.579057 0.000000
0.145658 0.579057 0.000000
0.181058 0.579057 0.000000
0.216095 0.579057 0.000000
0.250835 0.579057 0.000000
0.285322 0.579057 0.000000
0.319591 0.579057 0.000000
0.353666 0.579057 0.000000
0.387570 0.579057 0.000000
0.421318 0.579057 0.000000
0.454924 0.579057 0.000000
0.488400 0.579057 0.000000
0.521756 0.579057 0.000000
0.555000 0.579057 0.000000
0.588139 0.579057 0.000000
0.621180 0.579057 0.000000
0.654128 0.579057 0.000000
0.686990 0.579057 0.000000
0.719769 0.579057 0.000000
0.752470 0.579057 0.000000
0.785095 0.579057 0.000000
0.817650 0.579057 0.000000
0.850137 0.579057 0.000000
0.882558 0.579057 0.000000
0.914917 0.579057 0.000000
0.947216 0.579057 0.000000
0.979457 0.579057 0.000000
1.000000 0.579057 0.000000
1.000000 0.579057 0.000000
1.000000 0.579057 0.000000
0.035749 0.611490 0.000000
0.073289 0.611490 0.000000
0.109794 0.611490 0.000000
0.145658 0.611490 0.000000
0.181058 0.611490 0.000000
0.216095 0.611490 0.000000
0.250835 0.611490 0.000000
0.285322 0.611490 0.000000
0.319591 0.611490 0.000000
0.353666 0.611490 0.000000
0.387570 0.611490 0.000000
0.421318 0.611490 0.000000
0.454924 0.611490 0.000000
0.488400 0.611490 0.000000
0.521756 0.611490 0.000000
0.555000 0.611490 0.000000
0.588139 0.611490 0.000000
0.621180 0.611490 0.000000
0.654128 0.611490 0.000000
0.686990 0.611490 0.000000
0.719769 0.611490 0.000000
0.752470 0.611490 0.000000
0.785095 0.611490 0.000000
0.817650 0.611490 0.000000
0.850137 0.611490 0.000000
0.882558 0.611490 0.000000
0.914917 0.611490 0.000000
0.947216 0.611490 0.000000
0.979457 0.611490 0.000000
1.000000 0.611490 0.000000
1.000000 0.611490 0.000000
1.000000 0.611490 0.000000
0.035749 0.643869 0.000000
0.073289 0.643869 0.000000
0.109794 0.643869 0.000000
0.145658 0.643869 0.000000
0.181058 0.643869 0.000000
0.216095 0.643869 0.000000
0.250835 0.643869 0.000000
0.285322 0.643869 0.000000
0.319591 0.643869 0.000000
0.353666 0.643869 0.000000
0.387570 0.643869 0.000000
0.421318 0.643869 0.000000
0.454924 0.643869 0.000000
0.488400 0.643869 0.000000
0.521756 0.643869 0.000000
0.555000 0.643869 0.000000
0.588139 0.643869 0.000000
0.621180 0.643869 0.000000
0.654128 0.643869 0.000000
0.686990 0.643869 0.000000
0.719769 0.643869 0.000000
0.752470 0.643869 0.000000
0.785095 0.643869 0.000000
0.817650 0.643869 0.000000
0.850137 0.643869 0.000000
0.882558 0.643869 0.000000
0.914917 0.643869 0.000000
0.947216 0.643869 0.000000
0.979457 0.643869 0.000000
1.000000 0.643869 0.000000
1.000000 0.643869 0.000000
1.000000 0.643869 0.000000
0.035749 0.676198 0.000000
0.073289 0.676198 0.000000
0.109794 0.676198 0.000000
0.145658 0.676198 0.000000
0.181058 0.676198 0.000000
0.216095 0.676198 0.000000
0.250835 0.676198 0.000000
0.285322 0.676198 0.000000
0.319591 0.676198 0.000000
0.353666 0.676198 0.000000
0.387570 0.676198 0.000000
0.421318 0.676198 0.000000
0.454924 0.676198 0.000000
0.488400 0.676198 0.000000
0.521756 0.676198 0.000000
0.555000 0.676198 0.000000
0.588139 0.676198 0.000000
0.621180 0.676198 0.000000
0.654128 0.676198 0.000000
0.686990 0.676198 0.000000
0.719769 0.676198 0.000000
0.752470 0.676198 0.000000
0.785095 0.676198 0.000000
0.817650 0.676198 0.000000
0.850137 0.676198 0.000000
0.882558 0.676198 0.000000
0.914917 0.676198 0.000000
0.947216 0.676198 0.000000
0.979457 0.676198 0.000000
1.000000 0.676198 0.000000
1.000000 0.676198 0.000000
1.000000 0.676198 0.000000
0.035749 0.708479 0.000000
0.073289 0.708479 0.000000
0.109794 0.708479 0.000000
0.145658 0.708479 0.000000
0.181058 0.708479 0.000000
0.216095 0.708479 0.000000
0.250835 0.708479 0.000000
0.285322 0.708479 0.000000
0.319591 0.708479 0.000000
0.353666 0.708479 0.000000
0.387570 0.708479 0.000000
0.421318 0.708479 0.000000
0.454924 0.708479 0.000000
0.488400 0.708479 0.000000
0.521756 0.708479 0.000000
0.555000 0.708479 0.000000
0.588139 0.708479 0.000000
0.621180 0.708479 0.000000
0.654128 0.708479 0.000000
0.686990 0.708479 0.000000
0.719769 0.708479 0.000000
0.752470 0.708479 0.000000
0.785095 0.708479 0.000000
0.817650 0.708479 0.000000
0.850137 0.708479 0.000000
0.882558 0.708479 0.000000
0.914917 0.708479 0.000000
0.947216 0.708479 0.000000
0.979457 0.708479 0.000000
1.000000 0.708479 0.000000
1.000000 0.708479 0.000000
1.000000 0.708479 0.000000
0.035749 0.740715 0.000000
0.073289 0.740715 0.000000
0.109794 0.740715 0.000000
0.145658 0.740715 0.000000
0.181058 0.740715 0.000000
0.216095 0.740715 0.000000
0.250835 0.740715 0.000000
0.285322 0.740715 0.000000
0.319591 0.740715 0.000000
0.353666 0.740715 0.000000
0.387570 0.740715 0.000000
0.421318 0.740715 0.000000
0.454924 0.740715 0.000000
0.488400 0.740715 0.000000
0.521756 0.740715 0.000000
0.555000 0.740715 0.000000
0.588139 0.740715 0.000000
0.621180 0.740715 0.000000
0.654128 0.740715 0.000000
0.686990 0.740715 0.000000
0.719769 0.740715 0.000000
0.752470 0.740715 0.000000
0.785095 0.740715 0.000000
0.817650 0.740715 0.000000
0.850137 0.740715 0.000000
0.882558 0.740715 0.000000
0.914917 0.740715 0.000000
0.947216 0.740715 0.000000
0.979457 0.740715 0.000000
1.000000 0.740715 0.000000
1.000000 0.740715 0.000000
1.000000 0.740715 0.000000
0.035749 0.772907 0.000000
0.073289 0.772907 0.000000
0.109794 0.772907 0.000000
0.145658 0.772907 0.000000
0.181058 0.772907 0.000000
0.216095 0.772907 0.000000
0.250835 0.772907 0.000000
0.285322 0.772907 0.000000
0.319591 0.772907 0.000000
0.353666 0.772907 0.000000
0.387570 0.772907 0.000000
0.421318 0.772907 0.000000
0.454924 0.772907 0.000000
0.488400 0.772907 0.000000
0.521756 0.772907 0.000000
0.555000 0.772907 0.000000
0.588139 0.772907 0.000000
0.621180 0.772907 0.000000
0.654128 0.772907 0.000000
0.686990 0.772907 0.000000
0.719769 0.772907 0.000000
0.752470 0.772907 0.000000
0.785095 0.772907 0.000000
0.817650 0.772907 0.000000
0.850137 0.772907 0.000000
0.882558 0.772907 0.000000
0.914917 0.772907 0.000000
0.947216 0.772907 0.000000
0.979457 0.772907 0.000000
1.000000 0.772907 0.000000
1.000000 0.772907 0.000000
1.000000 0.772907 0.000000
0.035749 0.805058 0.000000
0.073289 0.805058 0.000000
0.109794 0.805058 0.000000
0.145658 0.805058 0.000000
0.181058 0.805058 0.000000
0.216095 0.805058 0.000000
0.250835 0.805058 0.000000
0.285322 0.805058 0.000000
0.319591 0.805058 0.000000
0.353666 0.805058 0.000000
0.387570 0.805058 0.000000
0.421318 0.805058 0.000000
0.454924 0.805058 0.000000
0.488400 0.805058 0.000000
0.521756 0.805058 0.000000
0.555000 0.805058 0.000000
0.588139 0.805058 0.000000
0.621180 0.805058 0.000000
0.654128 0.805058 0.000000
0.686990 0.805058 0.000000
0.719769 0.805058 0.000000
0.752470 0.805058 0.000000
0.785095 0.805058 0.000000
0.817650 0.805058 0.000000
0.850137 0.805058 0.000000
0.882558 0.805058 0.000000
0.914917 0.805058 0.000000
0.947216 0.805058 0.000000
0.979457 0.805058 0.000000
1.000000 0.805058 0.000000
1.000000 0.805058 0.000000
1.000000 0.805058 0.000000
0.035749 0.837170 0.000000
0.073289 0.837170 0.000000
0.109794 0.837170 0.000000
0.145658 0.837170 0.000000
0.181058 0.837170 0.000000
0.216095 0.837170 0.000000
0.250835 0.837170 0.000000
0.285322 0.837170 0.000000
0.319591 0.837170 0.000000
0.353666 0.837170 0.000000
0.387570 0.837170 0.000000
0.421318 0.837170 0.000000
0.454924 0.837170 0.000000
0.488400 0.837170 0.000000
0.521756 0.837170 0.000000
0.555000 0.837170 0.000000
0.588139 0.837170 0.000000
0.621180 0.837170 0.000000
0.654128 0.837170 0.000000
0.686990 0.837170 0.000000
0.719769 0.837170 0.000000
0.752470 0.837170 0.000000
0.785095 0.837170 0.000000
0.817650 0.837170 0.000000
0.850137 0.837170 0.000000
0.882558 0.837170 0.000000
0.914917 0.837170 0.000000
0.947216 0.837170 0.000000
0.979457 0.837170 0.000000
1.000000 0.837170 0.000000
1.000000 0.837170 0.000000
1.000000 0.837170 0.000000
0.035749 0.869243 0.000000
0.073289 0.869243 0.000000
0.109794 0.869243 0.000000
0.145658 0.869243 0.000000
0.181058 0.869243 0.000000
0.216095 0.869243 0.000000
0.250835 0.869243 0.000000
0.285322 0.869243 0.000000
0.319591 0.869243 0.000000
0.353666 0.869243 0.000000
0.387570 0.869243 0.000000
0.421318 0.869243 0.000000
0.454924 0.869243 0.000000
0.488400 0.869243 0.000000
0.521756 0.869243 0.000000
0.555000 0.869243 0.000000
0.588139 0.869243 0.000000
0.621180 0.869243 0.000000
0.654128 0.869243 0.000000
0.686990 0.869243 0.000000
0.719769 0.869243 0.000000
0.752470 0.869243 0.000000
0.785095 0.869243 0.000000
0.817650 0.869243 0.000000
0.850137 0.869243 0.000000
0.882558 0.869243 0.000000
0.914917 0.869243 0.000000
0.947216 0.869243 0.000000
0.979457 0.869243 0.000000
1.000000 0.869243 0.000000
1.000000 0.869243 0.000000
1.000000 0.869243 0.000000
0.035749 0.901280 0.000000
0.073289 0.901280 0.000000
0.109794 0.901280 0.000000
0.145658 0.901280 0.000000
0.181058 0.901280 0.000000
0.216095 0.901280 0.000000
0.250835 0.901280 0.000000
0.285322 0.901280 0.000000
0.319591 0.901280 0.000000
0.353666 0.901280 0.000000
0.387570 0.901280 0.000000
0.421318 0.901280 0.000000
0.454924 0.901280 0.000000
0.488400 0.901280 0.000000
0.521756 0.901280 0.000000
0.555000 0.901280 0.000000
0.588139 0.901280 0.000000
0.621180 0.901280 0.000000
0.654128 0.901280 0.000000
0.686990 0.901280 0.000000
0.719769 0.901280 0.000000
