3d-assets/textures/lut/roseGold.cube
TITLE "RoseGold LUT"
LUT_3D_SIZE 8
DOMAIN_MIN 0.000000 0.000000 0.000000
DOMAIN_MAX 0.903226 0.903226 0.903226
0.035749 0.011482 0.000000
0.181058 0.011482 0.000000
0.319591 0.011482 0.000000
0.454924 0.011482 0.000000
0.588139 0.011482 0.000000
0.719769 0.011482 0.000000
0.850137 0.011482 0.000000
0.979457 0.011482 0.000000
0.035749 0.150165 0.000000
0.181058 0.150165 0.000000
0.319591 0.150165 0.000000
0.454924 0.150165 0.000000
0.588139 0.150165 0.000000
0.719769 0.150165 0.000000
0.850137 0.150165 0.000000
0.979457 0.150165 0.000000
0.035749 0.284070 0.000000
0.181058 0.284070 0.000000
0.319591 0.284070 0.000000
0.454924 0.284070 0.000000
0.588139 0.284070 0.000000
0.719769 0.284070 0.000000
0.850137 0.284070 0.000000
0.979457 0.284070 0.000000
0.035749 0.415971 0.000000
0.181058 0.415971 0.000000
0.319591 0.415971 0.000000
0.454924 0.415971 0.000000
0.588139 0.415971 0.000000
0.719769 0.415971 0.000000
0.850137 0.415971 0.000000
0.979457 0.415971 0.000000
0.035749 0.546569 0.000000
0.181058 0.546569 0.000000
0.319591 0.546569 0.000000
0.454924 0.546569 0.000000
0.588139 0.546569 0.000000
0.719769 0.546569 0.000000
0.850137 0.546569 0.000000
0.979457 0.546569 0.000000
0.035749 0.676198 0.000000
0.181058 0.676198 0.000000
0.319591 0.676198 0.000000
0.454924 0.676198 0.000000
0.588139 0.676198 0.000000
0.719769 0.676198 0.000000
0.850137 0.676198 0.000000
0.979457 0.676198 0.000000
0.035749 0.805058 0.000000
0.181058 0.805058 0.000000
0.319591 0.805058 0.000000
0.454924 0.805058 0.000000
0.588139 0.805058 0.000000
0.719769 0.805058 0.000000
0.850137 0.805058 0.000000
0.979457 0.805058 0.000000
0.035749 0.933281 0.000000
0.181058 0.933281 0.000000
0.319591 0.933281 0.000000
0.454924 0.933281 0.000000
0.588139 0.933281 0.000000
0.719769 0.933281 0.000000
0.850137 0.933281 0.000000
0.979457 0.933281 0.000000
0.035749 0.011482 0.110368
0.181058 0.011482 0.110368
0.319591 0.011482 0.110368
0.454924 0.011482 0.110368
0.588139 0.011482 0.110368
0.719769 0.011482 0.110368
0.850137 0.011482 0.110368
0.979457 0.011482 0.110368
0.035749 0.150165 0.110368
0.181058 0.150165 0.110368
0.319591 0.150165 0.110368
0.454924 0.150165 0.110368
0.588139 0.150165 0.110368
0.719769 0.150165 0.110368
0.850137 0.150165 0.110368
0.979457 0.150165 0.110368
0.035749 0.284070 0.110368
0.181058 0.284070 0.110368
0.319591 0.284070 0.110368
0.454924 0.284070 0.110368
0.588139 0.284070 0.110368
0.719769 0.284070 0.110368
0.850137 0.284070 0.110368
0.979457 0.284070 0.110368
0.035749 0.415971 0.110368
0.181058 0.415971 0.110368
0.319591 0.415971 0.110368
0.454924 0.415971 0.110368
0.588139 0.415971 0.110368
0.719769 0.415971 0.110368
0.850137 0.415971 0.110368
0.979457 0.415971 0.110368
0.035749 0.546569 0.110368
0.181058 0.546569 0.110368
0.319591 0.546569 0.110368
0.454924 0.546569 0.110368
0.588139 0.546569 0.110368
0.719769 0.546569 0.110368
0.850137 0.546569 0.110368
0.979457 0.546569 0.110368
0.035749 0.676198 0.110368
0.181058 0.676198 0.110368
0.319591 0.676198 0.110368
0.454924 0.676198 0.110368
0.588139 0.676198 0.110368
0.719769 0.676198 0.110368
0.850137 0.676198 0.110368
0.979457 0.676198 0.110368
0.035749 0.805058 0.110368
0.181058 0.805058 0.110368
0.319591 0.805058 0.110368
0.454924 0.805058 0.110368
0.588139 0.805058 0.110368
0.719769 0.805058 0.110368
0.850137 0.805058 0.110368
0.979457 0.805058 0.110368
0.035749 0.933281 0.110368
0.181058 0.933281 0.110368
0.319591 0.933281 0.110368
0.454924 0.933281 0.110368
0.588139 0.933281 0.110368
0.719769 0.933281 0.110368
0.850137 0.933281 0.110368
0.979457 0.933281 0.110368
0.035749 0.011482 0.228520
0.181058 0.011482 0.228520
0.319591 0.011482 0.228520
0.454924 0.011482 0.228520
0.588139 0.011482 0.228520
0.719769 0.011482 0.228520
0.850137 0.011482 0.228520
0.979457 0.011482 0.228520
0.035749 0.150165 0.228520
0.181058 0.150165 0.228520
0.319591 0.150165 0.228520
0.454924 0.150165 0.228520
0.588139 0.150165 0.228520
0.719769 0.150165 0.228520
0.850137 0.150165 0.228520
0.979457 0.150165 0.228520
0.035749 0.284070 0.228520
0.181058 0.284070 0.228520
0.319591 0.284070 0.228520
0.454924 0.284070 0.228520
0.588139 0.284070 0.228520
0.719769 0.284070 0.228520
0.850137 0.284070 0.228520
0.979457 0.284070 0.228520
0.035749 0.415971 0.228520
0.181058 0.415971 0.228520
0.319591 0.415971 0.228520
0.454924 0.415971 0.228520
0.588139 0.415971 0.228520
0.719769 0.415971 0.228520
0.850137 0.415971 0.228520
0.979457 0.415971 0.228520
0.035749 0.546569 0.228520
0.181058 0.546569 0.228520
0.319591 0.546569 0.228520
0.454924 0.546569 0.228520
0.588139 0.546569 0.228520
0.719769 0.546569 0.228520
0.850137 0.546569 0.228520
0.979457 0.546569 0.228520
0.035749 0.676198 0.228520
0.181058 0.676198 0.228520
0.319591 0.676198 0.228520
0.454924 0.676198 0.228520
0.588139 0.676198 0.228520
0.719769 0.676198 0.228520
0.850137 0.676198 0.228520
0.979457 0.676198 0.228520
0.035749 0.805058 0.228520
0.181058 0.805058 0.228520
0.319591 0.805058 0.228520
0.454924 0.805058 0.228520
0.588139 0.805058 0.228520
0.719769 0.805058 0.228520
0.850137 0.805058 0.228520
0.979457 0.805058 0.228520
0.035749 0.933281 0.228520
0.181058 0.933281 0.228520
0.319591 0.933281 0.228520
0.454924 0.933281 0.228520
0.588139 0.933281 0.228520
0.719769 0.933281 0.228520
0.850137 0.933281 0.228520
0.979457 0.933281 0.228520
0.035749 0.011482 0.349800
0.181058 0.011482 0.349800
0.319591 0.011482 0.349800
0.454924 0.011482 0.349800
0.588139 0.011482 0.349800
0.719769 0.011482 0.349800
0.850137 0.011482 0.349800
0.979457 0.011482 0.349800
0.035749 0.150165 0.349800
0.181058 0.150165 0.349800
0.319591 0.150165 0.349800
0.454924 0.150165 0.349800
0.588139 0.150165 0.349800
0.719769 0.150165 0.349800
0.850137 0.150165 0.349800
0.979457 0.150165 0.349800
0.035749 0.284070 0.349800
0.181058 0.284070 0.349800
0.319591 0.284070 0.349800
0.454924 0.284070 0.349800
0.588139 0.284070 0.349800
0.719769 0.284070 0.349800
0.850137 0.284070 0.349800
0.979457 0.284070 0.349800
0.035749 0.415971 0.349800
0.181058 0.415971 0.349800
0.319591 0.415971 0.349800
0.454924 0.415971 0.349800
0.588139 0.415971 0.349800
0.719769 0.415971 0.349800
0.850137 0.415971 0.349800
0.979457 0.415971 0.349800
0.035749 0.546569 0.349800
0.181058 0.546569 0.349800
0.319591 0.546569 0.349800
0.454924 0.546569 0.349800
0.588139 0.546569 0.349800
0.719769 0.546569 0.349800
0.850137 0.546569 0.349800
0.979457 0.546569 0.349800
0.035749 0.676198 0.349800
0.181058 0.676198 0.349800
0.319591 0.676198 0.349800
0.454924 0.676198 0.349800
0.588139 0.676198 0.349800
0.719769 0.676198 0.349800
0.850137 0.676198 0.349800
0.979457 0.676198 0.349800
0.035749 0.805058 0.349800
0.181058 0.805058 0.349800
0.319591 0.805058 0.349800
0.454924 0.805058 0.349800
0.588139 0.805058 0.349800
0.719769 0.805058 0.349800
0.850137 0.805058 0.349800
0.979457 0.805058 0.349800
0.035749 0.933281 0.349800
0.181058 0.933281 0.349800
0.319591 0.933281 0.349800
0.454924 0.933281 0.349800
0.588139 0.933281 0.349800
0.719769 0.933281 0.349800
0.850137 0.933281 0.349800
0.979457 0.933281 0.349800
0.035749 0.011482 0.473158
0.181058 0.011482 0.473158
0.319591 0.011482 0.473158
0.454924 0.011482 0.473158
0.588139 0.011482 0.473158
0.719769 0.011482 0.473158
0.850137 0.011482 0.473158
0.979457 0.011482 0.473158
0.035749 0.150165 0.473158
0.181058 0.150165 0.473158
0.319591 0.150165 0.473158
0.454924 0.150165 0.473158
0.588139 0.150165 0.473158
0.719769 0.150165 0.473158
0.850137 0.150165 0.473158
0.979457 0.150165 0.473158
0.035749 0.284070 0.473158
0.181058 0.284070 0.473158
0.319591 0.284070 0.473158
0.454924 0.284070 0.473158
0.588139 0.284070 0.473158
0.719769 0.284070 0.473158
0.850137 0.284070 0.473158
0.979457 0.284070 0.473158
0.035749 0.415971 0.473158
0.181058 0.415971 0.473158
0.319591 0.415971 0.473158
0.454924 0.415971 0.473158
0.588139 0.415971 0.473158
0.719769 0.415971 0.473158
0.850137 0.415971 0.473158
0.979457 0.415971 0.473158
0.035749 0.546569 0.473158
0.181058 0.546569 0.473158
0.319591 0.546569 0.473158
0.454924 0.546569 0.473158
0.588139 0.546569 0.473158
0.719769 0.546569 0.473158
0.850137 0.546569 0.473158
0.979457 0.546569 0.473158
0.035749 0.676198 0.473158
0.181058 0.676198 0.473158
0.319591 0.676198 0.473158
0.454924 0.676198 0.473158
0.588139 0.676198 0.473158
0.719769 0.676198 0.473158
0.850137 0.676198 0.473158
0.979457 0.676198 0.473158
0.035749 0.805058 0.473158
0.181058 0.805058 0.473158
0.319591 0.805058 0.473158
0.454924 0.805058 0.473158
0.588139 0.805058 0.473158
0.719769 0.805058 0.473158
0.850137 0.805058 0.473158
0.979457 0.805058 0.473158
0.035749 0.933281 0.473158
0.181058 0.933281 0.473158
0.319591 0.933281 0.473158
0.454924 0.933281 0.473158
0.588139 0.933281 0.473158
0.719769 0.933281 0.473158
0.850137 0.933281 0.473158
0.979457 0.933281 0.473158
0.035749 0.011482 0.598083
0.181058 0.011482 0.598083
0.319591 0.011482 0.598083
0.454924 0.011482 0.598083
0.588139 0.011482 0.598083
0.719769 0.011482 0.598083
0.850137 0.011482 0.598083
0.979457 0.011482 0.598083
0.035749 0.150165 0.598083
0.181058 0.150165 0.598083
0.319591 0.150165 0.598083
0.454924 0.150165 0.598083
0.588139 0.150165 0.598083
0.719769 0.150165 0.598083
0.850137 0.150165 0.598083
0.979457 0.150165 0.598083
0.035749 0.284070 0.598083
0.181058 0.284070 0.598083
0.319591 0.284070 0.598083
0.454924 0.284070 0.598083
0.588139 0.284070 0.598083
0.719769 0.284070 0.598083
0.850137 0.284070 0.598083
0.979457 0.284070 0.598083
0.035749 0.415971 0.598083
0.181058 0.415971 0.598083
0.319591 0.415971 0.598083
0.454924 0.415971 0.598083
0.588139 0.415971 0.598083
0.719769 0.415971 0.598083
0.850137 0.415971 0.598083
0.979457 0.415971 0.598083
0.035749 0.546569 0.598083
0.181058 0.546569 0.598083
0.319591 0.546569 0.598083
0.454924 0.546569 0.598083
0.588139 0.546569 0.598083
0.719769 0.546569 0.598083
0.850137 0.546569 0.598083
0.979457 0.546569 0.598083
0.035749 0.676198 0.598083
0.181058 0.676198 0.598083
0.319591 0.676198 0.598083
0.454924 0.676198 0.598083
0.588139 0.676198 0.598083
0.719769 0.676198 0.598083
0.850137 0.676198 0.598083
0.979457 0.676198 0.598083
0.035749 0.805058 0.598083
0.181058 0.805058 0.598083
0.319591 0.805058 0.598083
0.454924 0.805058 0.598083
0.588139 0.805058 0.598083
0.719769 0.805058 0.598083
0.850137 0.805058 0.598083
0.979457 0.805058 0.598083
0.035749 0.933281 0.598083
0.181058 0.933281 0.598083
0.319591 0.933281 0.598083
0.454924 0.933281 0.598083
0.588139 0.933281 0.598083
0.719769 0.933281 0.598083
0.850137 0.933281 0.598083
0.979457 0.933281 0.598083
0.035749 0.011482 0.724272
0.181058 0.011482 0.724272
0.319591 0.011482 0.724272
0.454924 0.011482 0.724272
0.588139 0.011482 0.724272
0.719769 0.011482 0.724272
0.850137 0.011482 0.724272
0.979457 0.011482 0.724272
0.035749 0.150165 0.724272
0.181058 0.150165 0.724272
0.319591 0.150165 0.724272
0.454924 0.150165 0.724272
0.588139 0.150165 0.724272
0.719769 0.150165 0.724272
0.850137 0.150165 0.724272
0.979457 0.150165 0.724272
0.035749 0.284070 0.724272
0.181058 0.284070 0.724272
0.319591 0.284070 0.724272
0.454924 0.284070 0.724272
0.588139 0.284070 0.724272
0.719769 0.284070 0.724272
0.850137 0.284070 0.724272
0.979457 0.284070 0.724272
0.035749 0.415971 0.724272
0.181058 0.415971 0.724272
0.319591 0.415971 0.724272
0.454924 0.415971 0.724272
0.588139 0.415971 0.724272
0.719769 0.415971 0.724272
0.850137 0.415971 0.724272
0.979457 0.415971 0.724272
0.035749 0.546569 0.724272
0.181058 0.546569 0.724272
0.319591 0.546569 0.724272
0.454924 0.546569 0.724272
0.588139 0.546569 0.724272
0.719769 0.546569 0.724272
0.850137 0.546569 0.724272
0.979457 0.546569 0.724272
0.035749 0.676198 0.724272
0.181058 0.676198 0.724272
0.319591 0.676198 0.724272
0.454924 0.676198 0.724272
0.588139 0.676198 0.724272
0.719769 0.676198 0.724272
0.850137 0.676198 0.724272
0.979457 0.676198 0.724272
0.035749 0.805058 0.724272
0.181058 0.805058 0.724272
0.319591 0.805058 0.724272
0.454924 0.805058 0.724272
0.588139 0.805058 0.724272
0.719769 0.805058 0.724272
0.850137 0.805058 0.724272
0.979457 0.805058 0.724272
0.035749 0.933281 0.724272
0.181058 0.933281 0.724272
0.319591 0.933281 0.724272
0.454924 0.933281 0.724272
0.588139 0.933281 0.724272
0.719769 0.933281 0.724272
0.850137 0.933281 0.724272
0.979457 0.933281 0.724272
0.035749 0.011482 0.851522
0.181058 0.011482 0.851522
0.319591 0.011482 0.851522
0.454924 0.011482 0.851522
0.588139 0.011482 0.851522
0.719769 0.011482 0.851522
0.850137 0.011482 0.851522
0.979457 0.011482 0.851522
0.035749 0.150165 0.851522
0.181058 0.150165 0.851522
0.319591 0.150165 0.851522
0.454924 0.150165 0.851522
0.588139 0.150165 0.851522
0.719769 0.150165 0.851522
0.850137 0.150165 0.851522
0.979457 0.150165 0.851522
0.035749 0.284070 0.851522
0.181058 0.284070 0.851522
0.319591 0.284070 0.851522
0.454924 0.284070 0.851522
0.588139 0.284070 0.851522
0.719769 0.284070 0.851522
0.850137 0.284070 0.851522
0.979457 0.284070 0.851522
0.035749 0.415971 0.851522
0.181058 0.415971 0.851522
0.319591 0.415971 0.851522
0.454924 0.415971 0.851522
0.588139 0.415971 0.851522
0.719769 0.415971 0.851522
0.850137 0.415971 0.851522
0.979457 0.415971 0.851522
0.035749 0.546569 0.851522
0.181058 0.546569 0.851522
0.319591 0.546569 0.851522
0.454924 0.546569 0.851522
0.588139 0.546569 0.851522
0.719769 0.546569 0.851522
0.850137 0.546569 0.851522
0.979457 0.546569 0.851522
0.035749 0.676198 0.851522
0.181058 0.676198 0.851522
0.319591 0.676198 0.851522
0.454924 0.676198 0.851522
0.588139 0.676198 0.851522
0.719769 0.676198 0.851522
0.850137 0.676198 0.851522
0.979457 0.676198 0.851522
0.035749 0.805058 0.851522
0.181058 0.805058 0.851522
0.319591 0.805058 0.851522
0.454924 0.805058 0.851522
0.588139 0.805058 0.851522
0.719769 0.805058 0.851522
0.850137 0.805058 0.851522
0.979457 0.805058 0.851522
0.035749 0.933281 0.851522
0.181058 0.933281 0.851522
0.319591 0.933281 0.851522
0.454924 0.933281 0.851522
0.588139 0.933281 0.851522
0.719769 0.933281 0.851522
0.850137 0.933281 0.851522
0.979457 0.933281 0.851522
